;FLAVOR:Marlin
;TIME:2560
;Filament used: 2.11912m
;Layer height: 0.2
;MINX:123.877
;MINY:103.876
;MINZ:0.2
;MAXX:156.123
;MAXY:134.124
;MAXZ:12.8
;Generated with Cura_SteamEngine master
M140 S60
M105
M190 S60
M104 S210
M105
M109 S210
M82 ;absolute extrusion mode
G28 ; Home all axes
G92 E0 ; Reset Extruder
G1 Z2.0 F3000 ; Move Z Axis up
G1 X10.1 Y20 Z0.28 F5000.0 ; Move to start position
G1 X10.1 Y200.0 Z0.28 F1500.0 E15 ; Draw the first line
G1 X10.4 Y200.0 Z0.28 F5000.0 ; Move to side a little
G1 X10.4 Y20 Z0.28 F1500.0 E30 ; Draw the second line
G92 E0 ; Reset Extruder
G1 Z2.0 F3000 ; Move Z Axis up

; original CR-10 setting:
;M201 X500.00 Y500.00 Z100.00 E5000.00 ;Setup machine max acceleration
;M203 X500.00 Y500.00 Z10.00 E50.00 ;Setup machine max feedrate
;M204 P500.00 R1000.00 T500.00 ;Setup Print/Retract/Travel acceleration
;M205 X8.00 Y8.00 Z0.40 E5.00 ;Setup Jerk
;M220 S100 ;Reset Feedrate
;M221 S100 ;Reset Flowrate
G92 E0
G92 E0
G1 F2400 E-4
;LAYER_COUNT:64
;LAYER:0
M107
G0 F9000 X125.159 Y105.623 Z0.2
;TYPE:SKIRT
G1 F2400 E0
G1 F3000 X125.582 Y105.198 E0.04487
G1 X125.917 Y104.932 E0.07689
G1 X126.111 Y104.792 E0.09479
G1 X126.619 Y104.474 E0.13964
G1 X127.166 Y104.227 E0.18455
G1 X127.8 Y104.041 E0.234
G1 X128.047 Y103.988 E0.2529
G1 X128.797 Y103.892 E0.30949
G1 X129.104 Y103.881 E0.33248
G1 X129.517 Y103.877 E0.36339
G1 X150.355 Y103.876 E1.9228
G1 X151.054 Y103.886 E1.97512
G1 X151.449 Y103.909 E2.00473
G1 X151.605 Y103.925 E2.01647
G1 X152.196 Y104.026 E2.06133
G1 X152.769 Y104.205 E2.10626
G1 X153.114 Y104.355 E2.13441
G1 X153.332 Y104.461 E2.15255
G1 X153.852 Y104.759 E2.1974
G1 X154.329 Y105.123 E2.24231
G1 X154.674 Y105.459 E2.27835
G1 X154.826 Y105.624 E2.29513
G1 X155.202 Y106.091 E2.34
G1 X155.512 Y106.604 E2.38486
G1 X155.732 Y107.1 E2.42546
G1 X155.829 Y107.36 E2.44623
G1 X156.001 Y107.935 E2.49114
G1 X156.111 Y108.788 E2.55551
G1 X156.12 Y109.068 E2.57647
G1 X156.122 Y109.212 E2.58725
G1 X156.123 Y116.423 E3.12689
G1 X156.113 Y117.119 E3.17898
G1 X156.064 Y117.716 E3.2238
G1 X155.964 Y118.202 E3.26094
G1 X155.912 Y118.399 E3.27618
G1 X155.721 Y118.968 E3.3211
G1 X155.455 Y119.506 E3.36601
G1 X155.264 Y119.807 E3.39269
G1 X155.079 Y120.075 E3.41706
G1 X154.864 Y120.362 E3.4439
G1 X154.595 Y120.691 E3.4757
G1 X145.449 Y131.669 E4.545
G1 X144.86 Y132.35 E4.61238
G1 X144.438 Y132.776 E4.65725
G1 X144.19 Y132.98 E4.68128
G1 X143.99 Y133.133 E4.70013
G1 X143.491 Y133.465 E4.74498
G1 X142.952 Y133.727 E4.78983
G1 X142.2 Y133.959 E4.84872
G1 X141.953 Y134.012 E4.86763
G1 X141.203 Y134.108 E4.92421
G1 X140.896 Y134.119 E4.9472
G1 X140.482 Y134.123 E4.97818
G1 X129.648 Y134.124 E5.78895
G1 X128.935 Y134.114 E5.84231
G1 X128.074 Y134.018 E5.90714
G1 X127.831 Y133.967 E5.92573
G1 X127.253 Y133.805 E5.97065
G1 X126.703 Y133.568 E6.01547
G1 X126.165 Y133.243 E6.0625
G1 X125.959 Y133.098 E6.08136
G1 X125.493 Y132.721 E6.12621
G1 X125.081 Y132.285 E6.1711
G1 X124.73 Y131.798 E6.21603
G1 X124.464 Y131.304 E6.25801
G1 X124.301 Y130.951 E6.28711
G1 X124.086 Y130.392 E6.33193
G1 X123.948 Y129.808 E6.37684
G1 X123.887 Y129.164 E6.42525
G1 X123.877 Y128.657 E6.4632
G1 X123.877 Y109.548 E7.89323
G1 X123.887 Y108.877 E7.94345
G1 X123.936 Y108.279 E7.98835
G1 X124.039 Y107.785 E8.02611
G1 X124.091 Y107.59 E8.04121
G1 X124.284 Y107.022 E8.08611
G1 X124.684 Y106.268 E8.14998
G1 X124.795 Y106.1 E8.16505
G1 X125.159 Y105.623 E8.20995
G0 F9000 X125.636 Y105.989
G1 F3000 X126.036 Y105.599 E8.25176
G1 X126.268 Y105.418 E8.27378
G1 X126.462 Y105.278 E8.29168
G1 X126.937 Y104.985 E8.33345
G1 X127.449 Y104.762 E8.37524
G1 X127.926 Y104.628 E8.41232
G1 X128.173 Y104.575 E8.43123
G1 X128.823 Y104.492 E8.48026
G1 X129.11 Y104.481 E8.50176
G1 X129.517 Y104.477 E8.53222
G1 X150.347 Y104.476 E10.09104
G1 X151.046 Y104.486 E10.14335
G1 X151.388 Y104.506 E10.16899
G1 X151.544 Y104.522 E10.18072
G1 X152.094 Y104.619 E10.22252
G1 X152.851 Y104.895 E10.28282
G1 X153.069 Y105.001 E10.30096
G1 X153.553 Y105.28 E10.34276
G1 X153.991 Y105.626 E10.38454
G1 X154.232 Y105.866 E10.40999
G1 X154.384 Y106.031 E10.42678
G1 X154.732 Y106.467 E10.46852
G1 X155.014 Y106.949 E10.51031
G1 X155.17 Y107.31 E10.53974
G1 X155.267 Y107.57 E10.56051
G1 X155.424 Y108.105 E10.60224
G1 X155.511 Y108.808 E10.65525
G1 X155.522 Y109.212 E10.68549
G1 X155.523 Y116.414 E11.22446
G1 X155.513 Y117.11 E11.27655
G1 X155.465 Y117.666 E11.31831
G1 X155.384 Y118.049 E11.34761
G1 X155.332 Y118.246 E11.36285
G1 X155.151 Y118.774 E11.40462
G1 X154.771 Y119.467 E11.46377
G1 X154.586 Y119.735 E11.48814
G1 X154.399 Y119.983 E11.51138
G1 X154.134 Y120.307 E11.54271
G1 X144.995 Y131.276 E12.61115
G1 X144.406 Y131.957 E12.67853
G1 X143.826 Y132.504 E12.73819
G1 X143.626 Y132.657 E12.75704
G1 X143.159 Y132.963 E12.79882
G1 X142.654 Y133.2 E12.84057
G1 X142.074 Y133.372 E12.88584
G1 X141.827 Y133.425 E12.90475
G1 X141.177 Y133.508 E12.95378
G1 X140.89 Y133.519 E12.97528
G1 X140.482 Y133.523 E13.00581
G1 X129.656 Y133.524 E13.81598
G1 X128.943 Y133.514 E13.86934
G1 X128.197 Y133.431 E13.92551
G1 X127.954 Y133.38 E13.94409
G1 X127.417 Y133.226 E13.9859
G1 X126.908 Y132.998 E14.02764
G1 X126.51 Y132.752 E14.06265
G1 X126.304 Y132.607 E14.0815
G1 X125.872 Y132.254 E14.12325
G1 X125.494 Y131.843 E14.16504
G1 X125.18 Y131.382 E14.20678
G1 X125.008 Y131.053 E14.23457
G1 X124.845 Y130.7 E14.26366
G1 X124.648 Y130.178 E14.30542
G1 X124.528 Y129.633 E14.34718
G1 X124.487 Y129.151 E14.38338
G1 X124.477 Y128.657 E14.42036
G1 X124.477 Y109.557 E15.84971
G1 X124.487 Y108.886 E15.89993
G1 X124.536 Y108.33 E15.9417
G1 X124.619 Y107.939 E15.97161
G1 X124.671 Y107.744 E15.98671
G1 X124.853 Y107.216 E16.02851
G1 X125.185 Y106.599 E16.08094
G1 X125.296 Y106.431 E16.09601
G1 X125.636 Y105.989 E16.13774
G0 F9000 X126.112 Y106.357
G1 F3000 X126.619 Y105.905 E16.18857
G1 X126.813 Y105.765 E16.20648
G1 X127.251 Y105.498 E16.24486
G1 X127.726 Y105.302 E16.28332
G1 X128.052 Y105.214 E16.30859
G1 X128.299 Y105.161 E16.32749
G1 X128.849 Y105.091 E16.36898
G1 X129.117 Y105.081 E16.38905
G1 X129.517 Y105.077 E16.41899
G1 X150.338 Y105.076 E17.97714
G1 X151.037 Y105.086 E18.02945
G1 X151.327 Y105.103 E18.05119
G1 X151.483 Y105.119 E18.06293
G1 X151.988 Y105.211 E18.10134
G1 X152.589 Y105.434 E18.14931
G1 X152.807 Y105.54 E18.16745
G1 X153.25 Y105.8 E18.20589
G1 X153.791 Y106.272 E18.25962
G1 X153.943 Y106.437 E18.27641
G1 X154.261 Y106.841 E18.31489
G1 X154.608 Y107.52 E18.37195
G1 X154.705 Y107.78 E18.39272
G1 X154.846 Y108.273 E18.43109
G1 X154.911 Y108.827 E18.47283
G1 X154.922 Y109.213 E18.50173
G1 X154.923 Y116.405 E19.03995
G1 X154.913 Y117.101 E19.09204
G1 X154.865 Y117.613 E19.13052
G1 X154.804 Y117.896 E19.15219
G1 X154.752 Y118.093 E19.16743
G1 X154.582 Y118.578 E19.20589
G1 X154.277 Y119.126 E19.25283
G1 X154.092 Y119.394 E19.2772
G1 X153.934 Y119.604 E19.29686
G1 X153.673 Y119.923 E19.32771
G1 X144.541 Y130.884 E20.39536
G1 X143.952 Y131.565 E20.46274
G1 X143.461 Y132.027 E20.51319
G1 X143.261 Y132.18 E20.53203
G1 X142.83 Y132.459 E20.57046
G1 X142.361 Y132.668 E20.60888
G1 X141.948 Y132.786 E20.64103
G1 X141.701 Y132.839 E20.65993
G1 X141.151 Y132.909 E20.70142
G1 X140.883 Y132.919 E20.72149
G1 X140.482 Y132.923 E20.7515
G1 X129.665 Y132.924 E21.561
G1 X128.952 Y132.914 E21.61436
G1 X128.32 Y132.844 E21.66194
G1 X128.077 Y132.793 E21.68053
G1 X127.584 Y132.648 E21.71898
G1 X127.12 Y132.43 E21.75735
G1 X126.856 Y132.262 E21.78076
G1 X126.65 Y132.117 E21.79962
G1 X126.254 Y131.789 E21.8381
G1 X125.914 Y131.405 E21.87648
G1 X125.553 Y130.801 E21.92914
G1 X125.39 Y130.448 E21.95823
G1 X125.212 Y129.967 E21.99662
G1 X125.11 Y129.464 E22.03502
G1 X125.087 Y129.138 E22.05948
G1 X125.077 Y128.657 E22.09548
G1 X125.077 Y109.566 E23.52417
G1 X125.087 Y108.895 E23.57439
G1 X125.135 Y108.384 E23.61279
G1 X125.198 Y108.094 E23.635
G1 X125.25 Y107.899 E23.65011
G1 X125.421 Y107.414 E23.68859
G1 X125.686 Y106.93 E23.72989
G1 X125.797 Y106.762 E23.74495
G1 X126.112 Y106.357 E23.78335
G0 F9000 X135.918 Y124.89
G1 F3000 X135.998 Y124.863 E23.78967
G1 X136.112 Y124.92 E23.79921
G1 X136.13 Y125.043 E23.80851
G1 X136.041 Y125.13 E23.81782
G1 X135.916 Y125.108 E23.82732
G1 X135.863 Y124.999 E23.83639
G1 X135.918 Y124.89 E23.84553
G0 F9000 X135.563 Y124.397
G1 F3000 X135.772 Y124.292 E23.86303
G1 X136.001 Y124.255 E23.88039
G1 X136.23 Y124.292 E23.89775
G1 X136.436 Y124.397 E23.91505
G1 X136.652 Y124.659 E23.94047
G1 X136.745 Y124.999 E23.96684
G1 X136.708 Y125.23 E23.98435
G1 X136.603 Y125.436 E24.00165
G1 X136.437 Y125.603 E24.01928
G1 X136.227 Y125.708 E24.03685
G1 X135.999 Y125.745 E24.05413
G1 X135.774 Y125.709 E24.07118
G1 X135.561 Y125.601 E24.08906
G1 X135.397 Y125.437 E24.10641
G1 X135.292 Y125.227 E24.12398
G1 X135.255 Y124.999 E24.14127
G1 X135.291 Y124.774 E24.15832
G1 X135.399 Y124.561 E24.17619
G1 X135.563 Y124.397 E24.19355
G0 F9000 X135.206 Y123.905
G1 F3000 X135.582 Y123.715 E24.22508
G1 X136.001 Y123.648 E24.25683
G1 X136.419 Y123.715 E24.28851
G1 X136.793 Y123.905 E24.3199
G1 X137.094 Y124.205 E24.35171
G1 X137.285 Y124.582 E24.38333
G1 X137.352 Y124.999 E24.41494
G1 X137.285 Y125.419 E24.44677
G1 X137.095 Y125.793 E24.47816
G1 X136.794 Y126.094 E24.51002
G1 X136.417 Y126.285 E24.54164
G1 X135.999 Y126.352 E24.57332
G1 X135.586 Y126.286 E24.60462
G1 X135.202 Y126.092 E24.63682
G1 X134.905 Y125.794 E24.6683
G1 X134.715 Y125.417 E24.6999
G1 X134.648 Y124.999 E24.73158
G1 X134.714 Y124.586 E24.76288
G1 X134.908 Y124.202 E24.79507
G1 X135.206 Y123.905 E24.82656
G0 F9000 X134.852 Y123.412
G1 F3000 X135.395 Y123.137 E24.87211
G1 X136.001 Y123.04 E24.91804
G1 X136.606 Y123.137 E24.96389
G1 X137.15 Y123.413 E25.00954
G1 X137.586 Y123.848 E25.05563
G1 X137.725 Y124.12 E25.07849
G1 X137.743 Y124.159 E25.0817
G1 X137.863 Y124.395 E25.10152
G1 X137.96 Y125 E25.14737
G1 X137.863 Y125.606 E25.1933
G1 X137.587 Y126.15 E25.23895
G1 X137.152 Y126.586 E25.28504
G1 X136.604 Y126.863 E25.33099
G1 X135.999 Y126.96 E25.37684
G1 X135.401 Y126.865 E25.42216
G1 X134.846 Y126.584 E25.46871
G1 X134.412 Y126.148 E25.51475
G1 X134.137 Y125.604 E25.56036
G1 X134.04 Y124.999 E25.60622
G1 X134.135 Y124.401 E25.65153
G1 X134.416 Y123.846 E25.69808
G1 X134.852 Y123.412 E25.74412
G1 F2400 E21.74412
;MESH:switchEndstop20v.stl
G0 F9000 X134.522 Y121.899
G0 X136.631 Y119.72
G0 X130.684 Y124.407
G0 X130.659 Y110.659
G0 X138.612 Y110.682
G0 X136.581 Y114.748
G0 X139.05 Y117.224
;TYPE:WALL-INNER
G1 F2400 E25.74412
G1 F1800 X140.663 Y116.792 E25.86909
G1 X141.842 Y115.613 E25.99386
G1 X142.274 Y114 E26.11883
G1 X141.842 Y112.387 E26.24379
G1 X140.663 Y111.208 E26.36857
G1 X139.05 Y110.776 E26.49353
G1 X137.437 Y111.208 E26.61849
G1 X136.258 Y112.387 E26.74327
G1 X135.826 Y114 E26.86823
G1 X136.258 Y115.613 E26.9932
G1 X137.437 Y116.792 E27.11798
G1 X139.05 Y117.224 E27.24294
G0 F9000 X139.05 Y116.603
G1 F1800 X140.352 Y116.254 E27.34381
G1 X141.304 Y115.302 E27.44457
G1 X141.653 Y114 E27.54544
G1 X141.304 Y112.698 E27.64632
G1 X140.352 Y111.746 E27.74707
G1 X139.05 Y111.397 E27.84795
G1 X137.748 Y111.746 E27.94882
G1 X136.796 Y112.698 E28.04957
G1 X136.447 Y114 E28.15045
G1 X136.796 Y115.302 E28.25133
G1 X137.748 Y116.254 E28.35208
G1 X139.05 Y116.603 E28.45295
G0 F9000 X139.05 Y115.982
G1 F1800 X140.041 Y115.716 E28.52974
G1 X140.766 Y114.991 E28.60647
G1 X141.032 Y114 E28.68326
G1 X140.766 Y113.009 E28.76004
G1 X140.041 Y112.284 E28.83677
G1 X139.05 Y112.018 E28.91356
G1 X138.059 Y112.284 E28.99035
G1 X137.334 Y113.009 E29.06708
G1 X137.068 Y114 E29.14386
G1 X137.334 Y114.991 E29.22065
G1 X138.059 Y115.716 E29.29738
G1 X139.05 Y115.982 E29.37416
G0 F9000 X139.05 Y115.361
;TYPE:WALL-OUTER
G1 F1800 X139.73 Y115.178 E29.42686
G1 X140.228 Y114.68 E29.47957
G1 X140.411 Y114 E29.53227
G1 X140.228 Y113.32 E29.58497
G1 X139.73 Y112.822 E29.63767
G1 X139.05 Y112.639 E29.69037
G1 X138.37 Y112.822 E29.74307
G1 X137.872 Y113.32 E29.79577
G1 X137.689 Y114 E29.84847
G1 X137.872 Y114.68 E29.90117
G1 X138.37 Y115.178 E29.95387
G1 X139.05 Y115.361 E30.00657
G0 F9000 X139.05 Y116.021
G0 X142.451 Y114
G0 X139.487 Y110.682
G0 X148.114 Y110.681
G0 X146.305 Y114.982
G0 X148.55 Y115.982
;TYPE:WALL-INNER
G1 F1800 X149.541 Y115.716 E30.08336
G1 X150.266 Y114.991 E30.16009
G1 X150.532 Y114 E30.23688
G1 X150.266 Y113.009 E30.31366
G1 X149.541 Y112.284 E30.39039
G1 X148.55 Y112.018 E30.46718
G1 X147.559 Y112.284 E30.54397
G1 X146.834 Y113.009 E30.62069
G1 X146.568 Y114 E30.69748
G1 X146.834 Y114.991 E30.77427
G1 X147.559 Y115.716 E30.851
G1 X148.55 Y115.982 E30.92778
G0 F9000 X148.55 Y115.361
;TYPE:WALL-OUTER
G1 F1800 X149.23 Y115.178 E30.98048
G1 X149.728 Y114.68 E31.03319
G1 X149.911 Y114 E31.08589
G1 X149.728 Y113.32 E31.13858
G1 X149.23 Y112.822 E31.19129
G1 X148.55 Y112.639 E31.24399
G1 X147.87 Y112.822 E31.29669
G1 X147.372 Y113.32 E31.34939
G1 X147.189 Y114 E31.40209
G1 X147.372 Y114.68 E31.45479
G1 X147.87 Y115.178 E31.50749
G1 X148.55 Y115.361 E31.56019
G0 F9000 X148.55 Y116.021
G0 X148.498 Y117.405
G0 X141.226 Y126.115
G0 X140.176 Y121.676
G0 X136 Y121.482
G0 X134.914 Y121.655
G0 X133.933 Y122.154
G0 X133.153 Y122.932
G0 X132.75 Y123.726
G0 X131.522 Y127.524
;TYPE:WALL-INNER
G1 F1800 X130.477 Y127.524 E31.63839
G1 X130.477 Y126.607 E31.70702
G1 X130.477 Y125 E31.82728
G1 X130.477 Y123.396 E31.94731
G1 X130.477 Y110.477 E32.91411
G1 X137.911 Y110.477 E33.47044
G1 X139.05 Y110.477 E33.53542
G1 X140.189 Y110.477 E33.6004
G1 X147.41 Y110.477 E34.14078
G1 X148.549 Y110.477 E34.22602
G1 X149.523 Y110.476 E34.29891
G1 X149.523 Y111.037 E34.34089
G1 X148.55 Y110.776 E34.39548
G1 X146.937 Y111.208 E34.49433
G1 X145.758 Y112.387 E34.61911
G1 X145.326 Y114 E34.74407
G1 X145.758 Y115.613 E34.86904
G1 X146.937 Y116.792 E34.99381
G1 X148.55 Y117.224 E35.11878
G1 X148.992 Y117.106 E35.15301
G1 X140.742 Y127.006 E36.11741
G1 X140.945 Y126.607 E36.15091
G1 X141.201 Y125 E36.27269
G1 X140.945 Y123.393 E36.39446
G1 X140.205 Y121.944 E36.51622
G1 X139.055 Y120.793 E36.63798
G1 X137.607 Y120.055 E36.75961
G1 X136 Y119.799 E36.88138
G1 X134.393 Y120.055 E37.00316
G1 X132.944 Y120.793 E37.12485
G1 X131.791 Y121.943 E37.24672
G1 X131.055 Y123.396 E37.36861
G1 X130.799 Y125 E37.46021
G1 X131.055 Y126.607 E37.55197
G1 X131.522 Y127.524 E37.62898
G0 F9000 X132.285 Y127.699
G1 F1800 X132.709 Y128.124 E37.67391
G1 X129.877 Y128.124 E37.88584
G1 X129.877 Y109.877 E39.25136
G1 X150.123 Y109.876 E40.76648
G1 X150.123 Y112.017 E40.9267
G1 X149.852 Y111.746 E40.95538
G1 X148.55 Y111.397 E41.05626
G1 X147.248 Y111.746 E41.15713
G1 X146.296 Y112.698 E41.25788
G1 X145.947 Y114 E41.35876
G1 X146.296 Y115.302 E41.45963
G1 X147.248 Y116.254 E41.56039
G1 X148.55 Y116.603 E41.66126
G1 X149.852 Y116.254 E41.76214
G1 X150.123 Y115.983 E41.79082
G1 X150.123 Y116.686 E41.82169
G1 X140.592 Y128.123 E42.93582
G1 X139.291 Y128.123 E43.03318
G1 X139.716 Y127.698 E43.07816
G1 X140.367 Y126.419 E43.18556
G1 X140.593 Y125 E43.29309
G1 X140.367 Y123.581 E43.40062
G1 X139.714 Y122.301 E43.50815
G1 X138.698 Y121.284 E43.61573
G1 X137.419 Y120.633 E43.72313
G1 X136 Y120.407 E43.83066
G1 X134.581 Y120.633 E43.93819
G1 X133.301 Y121.285 E44.04569
G1 X132.283 Y122.3 E44.15327
G1 X131.633 Y123.583 E44.2609
G1 X131.407 Y125 E44.36829
G1 X131.633 Y126.419 E44.47582
G1 X132.285 Y127.699 E44.58332
G0 F9000 X132.777 Y127.342
G1 F1800 X133.657 Y128.225 E44.67661
G1 X134.641 Y128.724 E44.75917
G1 X133.657 Y128.724 E44.78849
G1 X129.277 Y128.724 E45.11627
G1 X129.277 Y109.277 E46.57159
G1 X150.723 Y109.276 E48.17651
G1 X150.723 Y113.009 E48.45587
G1 X150.723 Y114 E48.49569
G1 X150.723 Y114.991 E48.53552
G1 X150.723 Y116.903 E48.6786
G1 X140.873 Y128.723 E49.83003
G1 X138.342 Y128.723 E50.01944
G1 X137.359 Y128.723 E50.093
G1 X138.342 Y128.223 E50.13129
G1 X139.224 Y127.341 E50.22463
G1 X139.789 Y126.231 E50.31784
G1 X139.985 Y125 E50.41112
G1 X139.789 Y123.769 E50.50441
G1 X139.223 Y122.658 E50.59772
G1 X138.341 Y121.776 E50.69106
G1 X137.231 Y121.211 E50.78427
G1 X136 Y121.015 E50.87755
G1 X134.769 Y121.211 E50.97084
G1 X133.658 Y121.777 E51.06415
G1 X132.775 Y122.657 E51.15744
